X:190
T: Love and Whiskey or Bob and Joan with variations
N: O'Farrell's Pocket Companion v.3 (Sky ed. p.98-9)
N: "Irish"
M: 3/4
L: 1/8
R: waltz
Q: 240
K: G
d/c/|: BGGEG2|BGGEFA |BGGEF2 |D>AAGFA :|
P:2
GddcB2 | GddGBd| GddcB2| ABAGFA|
GddcB2 | GddGBg| edcBHc2 |EA A/B/A/G/ FA :|
P:3
gbefg2 | gbeefa| beefgf/g/| adddfa :|
P:4
gf/e/ dG B2| g/f/g/e/ dGBd| e/f/g/e/ dGB2| cAAGFA|
gf/e/ dG B2| e/f/g/e/ dGBd| gbef g>f| eAAGFA :|
P:5
BEEFG2| BEEGFA| BEEFG>B| ADDGFA :|
P:6
Gd d/e/d/c/ B2| dGGG Bd| Gd d/e/d/c/ B2| eA A/B/A/G/ FA|
Gd d/e/d/c/ B2| Gddc B>g| bg ag/f/ gf| eAAGFA :|
